X: 64
T: Missa de septem doloribus / Gloria
N: Derived from Rue1014b-Missa_de_septem_doloribus-Gloria.krn
C: Pierre de la Rue
%%abc-version 2.0
%%abcx-abcm2ps-target-version 5.9.1 (29 Sep 2008)
%%abc-creator hum2abc beta
%%abcx-conversion-date 2019/02/17 08:01:12
%%abc-edited-by Jesse Rodin
%%abc-edited-by Chris Gage 05-23-2011
%%abcx-initial-encoding-date 2013/08/03/
%%humdrum-veritas 1125978713
%%humdrum-veritas-data 3522686997
%%linebreak <none>
%%barnumbers 0
L: 1/4
M: 2/1
Q: 1/2=120
V: 1 clef=treble
V: 2 clef=treble-8
V: 3 clef=treble-8
V: 4 clef=treble-8
V: 5 clef=bass
K: C
[V:1] z8 | 
[V:2] d6d2 | 
[V:3] z8 | 
[V:4] z8 | 
[V:5] z8 | 
[V:1] A6A2 | 
[V:2] f4f4 | 
[V:3] z8 | 
[V:4] z8 | 
[V:5] z8 | 
[V:1] c4c4 | 
[V:2] e4c4 | 
[V:3] z8 | 
[V:4] z8 | 
[V:5] z8 | 
[V:1] B4G4 | 
[V:2] d4B4 | 
[V:3] z8 | 
[V:4] z8 | 
[V:5] z8 | 
[V:1] A4F4 | 
[V:2] A8 | 
[V:3] z8 | 
[V:4] z8 | 
[V:5] z8 | 
[V:1] E8- | 
[V:2] z2c4BA | 
[V:3] z8 | 
[V:4] z8 | 
[V:5] z8 | 
[V:1] E8 | 
[V:2] G2A4G2 | 
[V:3] z8 | 
[V:4] z8 | 
[V:5] z8 | 
[V:1] z2G4FE | 
[V:2] A2E3FGA | 
[V:3] z8 | 
[V:4] z8 | 
[V:5] z8 | 
[V:1] D2E4D2 | 
[V:2] B2c4B2 | 
[V:3] z8 | 
[V:4] z8 | 
[V:5] z8 | 
[V:1] E2C3DEF | 
[V:2] c2e3dc2- | 
[V:3] z8 | 
[V:4] z8 | 
[V:5] z8 | 
[V:1] G2A4^G2 | 
[V:2] c2BAB4 | 
[V:3] z8 | 
[V:4] z4z2E2 | 
[V:5] z8 | 
[V:1] A8- | 
[V:2] A3Bc2d2 | 
[V:3] z8 | 
[V:4] F2A3GF2- | 
[V:5] z8 | 
[V:1] A8 | 
[V:2] A2d3^c^c2 | 
[V:3] z8 | 
[V:4] F2EDE4 | 
[V:5] z4A,,4 | 
[V:1] z8 | 
[V:2] d8 | 
[V:3] z8 | 
[V:4] D4A4 | 
[V:5] D,4D,4 | 
[V:1] z8 | 
[V:2] z8 | 
[V:3] z8 | 
[V:4] d4d4 | 
[V:5] G,,4z2G,2 | 
[V:1] z8 | 
[V:2] z8 | 
[V:3] z8 | 
[V:4] G8 | 
[V:5] G,2E,3F,G,2- | 
[V:1] z8 | 
[V:2] z8 | 
[V:3] z8 | 
[V:4] z2d2d2B2- | 
[V:5] G,2F,E,D,4 | 
[V:1] z8 | 
[V:2] z8 | 
[V:3] z8 | 
[V:4] Bcd4cB | 
[V:5] z2G,2G,4 | 
[V:1] z8 | 
[V:2] z8 | 
[V:3] z8 | 
[V:4] A4G4 | 
[V:5] F,4G,4- | 
[V:1] z8 | 
[V:2] z8 | 
[V:3] z8 | 
[V:4] z2d2d4 | 
[V:5] G,2F,E,D,2F,2 | 
[V:1] z8 | 
[V:2] z8 | 
[V:3] z8 | 
[V:4] c4d4- | 
[V:5] E,4D,4- | 
[V:1] z8 | 
[V:2] z8 | 
[V:3] z8 | 
[V:4] d2cBA2c2 | 
[V:5] D,4z2F,2 | 
[V:1] z8 | 
[V:2] z8 | 
[V:3] z8 | 
[V:4] B4A4 | 
[V:5] G,2E,2F,2D,2- | 
[V:1] z8 | 
[V:2] z8 | 
[V:3] z8 | 
[V:4] z2c2d2B2 | 
[V:5] D,C,B,,A,,B,,4 | 
[V:1] z8 | 
[V:2] z4c4 | 
[V:3] A8 | 
[V:4] c2A3GFE | 
[V:5] A,,8 | 
[V:1] z8 | 
[V:2] d4e4 | 
[V:3] A4A4 | 
[V:4] F4E4 | 
[V:5] z2D,4C,2 | 
[V:1] A8 | 
[V:2] f4f4 | 
[V:3] A4A4 | 
[V:4] z2D2D4 | 
[V:5] D,2F,4E,D, | 
[V:1] A4A4 | 
[V:2] d4d4 | 
[V:3] F4F4 | 
[V:4] D4D4 | 
[V:5] A,4A,4 | 
[V:1] A4A4 | 
[V:2] e8 | 
[V:3] E8 | 
[V:4] A4c3B | 
[V:5] A,,8 | 
[V:1] F4F4 | 
[V:2] c4d4 | 
[V:3] z4A4- | 
[V:4] A2G2F2ED | 
[V:5] z8 | 
[V:1] E8 | 
[V:2] e4c3B | 
[V:3] A4A4 | 
[V:4] C6D2 | 
[V:5] A,,6B,,2 | 
[V:1] z4A4- | 
[V:2] A4z2c2 | 
[V:3] A4A4 | 
[V:4] E2F3GA2 | 
[V:5] C,2D,3E,F,G, | 
[V:1] A4A4 | 
[V:2] d4d4 | 
[V:3] A4A4 | 
[V:4] D2F4ED | 
[V:5] A,2D,4C,B,, | 
[V:1] A4A4 | 
[V:2] e8 | 
[V:3] c8- | 
[V:4] C4E4- | 
[V:5] A,,4A,,4 | 
[V:1] c6B2 | 
[V:2] e8- | 
[V:3] c8 | 
[V:4] E4E4 | 
[V:5] A,,4A,,4- | 
[V:1] A4G4- | 
[V:2] e8 | 
[V:3] c8 | 
[V:4] E4E4 | 
[V:5] A,,4C,4 | 
[V:1] G4d4- | 
[V:2] d6c2 | 
[V:3] B8 | 
[V:4] G6FE | 
[V:5] G,,8 | 
[V:1] d2c2B2A2- | 
[V:2] B2G2B2c2 | 
[V:3] d8- | 
[V:4] D4F4- | 
[V:5] G,,4D,4- | 
[V:1] A2G2F2ED | 
[V:2] d4A4- | 
[V:3] d8 | 
[V:4] F4F4 | 
[V:5] D,4D,4 | 
[V:1] E4z2A2- | 
[V:2] A8 | 
[V:3] c8- | 
[V:4] z2A3GE2 | 
[V:5] A,,8 | 
[V:1] A2GFG2A2 | 
[V:2] z8 | 
[V:3] c8 | 
[V:4] F2EDC4 | 
[V:5] z8 | 
[V:1] E4z2A2- | 
[V:2] z8 | 
[V:3] c8- | 
[V:4] z2A3GFE | 
[V:5] z8 | 
[V:1] A2GFG2A2 | 
[V:2] z8 | 
[V:3] c8 | 
[V:4] F2EDC4 | 
[V:5] z4z2A,,2 | 
[V:1] D8 | 
[V:2] z2G2B2c2 | 
[V:3] B8 | 
[V:4] z8 | 
[V:5] B,,2C,2D,4- | 
[V:1] z4z2A2 | 
[V:2] d4e2d2- | 
[V:3] A8 | 
[V:4] z8 | 
[V:5] D,2C,B,,A,,2D,2 | 
[V:1] B2c2d4- | 
[V:2] dcBAB4 | 
[V:3] G8 | 
[V:4] D8 | 
[V:5] G,,8 | 
[V:1] d2cBA2d2 | 
[V:2] A4d3c | 
[V:3] F8 | 
[V:4] D4D4 | 
[V:5] z8 | 
[V:1] G4d4 | 
[V:2] B3AG4 | 
[V:3] G4B4 | 
[V:4] E4D3E | 
[V:5] z4G,,4 | 
[V:1] c4A4 | 
[V:2] c4c4 | 
[V:3] A8 | 
[V:4] F2E2F4 | 
[V:5] A,,4F,,4 | 
[V:1] B4G2d2- | 
[V:2] B2d4cB | 
[V:3] G8 | 
[V:4] D8- | 
[V:5] G,,8 | 
[V:1] d2cBA2d2 | 
[V:2] A4d4 | 
[V:3] F4F4 | 
[V:4] D8 | 
[V:5] z4D,4 | 
[V:1] G2c3BAG | 
[V:2] B2e3ce2 | 
[V:3] G4c3B | 
[V:4] z8 | 
[V:5] E,4C,4 | 
[V:1] F2G4^F2 | 
[V:2] d4z2D2 | 
[V:3] A2G2A4 | 
[V:4] z4z2A2 | 
[V:5] D,8 | 
[V:1] G8 | 
[V:2] D2E3DD2 | 
[V:3] G8 | 
[V:4] B2c2d4 | 
[V:5] G,,2C,4B,,2 | 
[V:1] z4z2A2 | 
[V:2] E3FG2A2- | 
[V:3] z8 | 
[V:4] G4z2d2- | 
[V:5] C,3D,E,2F,2 | 
[V:1] B2c2d4 | 
[V:2] AGG4F2 | 
[V:3] z8 | 
[V:4] d2c4B2 | 
[V:5] G,2E,2D,4 | 
[V:1] G2c4B2 | 
[V:2] G8 | 
[V:3] z8 | 
[V:4] c2c3BG2 | 
[V:5] C,3D,E,4 | 
[V:1] c2c3BAG | 
[V:2] z8 | 
[V:3] z8 | 
[V:4] A2GFE4 | 
[V:5] A,,8 | 
[V:1] A2GFE4 | 
[V:2] z8 | 
[V:3] z8 | 
[V:4] D2d4^c2 | 
[V:5] z4z2A,,2 | 
[V:1] D8 | 
[V:2] z4z2A2 | 
[V:3] z8 | 
[V:4] d8 | 
[V:5] B,,2C,2D,4 | 
[V:1] z8 | 
[V:2] B2d3cBA | 
[V:3] z8 | 
[V:4] z8 | 
[V:5] G,,4D,4- | 
[V:1] z8 | 
[V:2] B2A4G2 | 
[V:3] z8 | 
[V:4] z8 | 
[V:5] D,2C,2B,,4 | 
[V:1] z8 | 
[V:2] A2F2E4 | 
[V:3] z8 | 
[V:4] z8 | 
[V:5] A,,2D,3^C,C,2 | 
[V:1] z8 | 
[V:2] D4z4 | 
[V:3] z8 | 
[V:4] z8 | 
[V:5] D,8 | 
[V:1] A8 | 
[V:2] d8 | 
[V:3] F8 | 
[V:4] A8 | 
[V:5] D,8 | 
[V:1] !fermata!A8 | 
[V:2] !fermata!c8 | 
[V:3] !fermata!E8 | 
[V:4] !fermata!A8 | 
[V:5] !fermata!A,,8 | 
[V:1] c8 | 
[V:2] c8 | 
[V:3] E8 | 
[V:4] A8 | 
[V:5] A,,8 | 
[V:1] A6F2 | 
[V:2] c6d2 | 
[V:3] E8 | 
[V:4] A8- | 
[V:5] A,,8 | 
[V:1] !fermata!F8 | 
[V:2] !fermata!d8 | 
[V:3] !fermata!F8 | 
[V:4] !fermata!A8 | 
[V:5] !fermata!D,8 | 
[V:1] A8 | 
[V:2] f3ec2d2- | 
[V:3] F8 | 
[V:4] A8 | 
[V:5] D,4A,,4- | 
[V:1] A4F4- | 
[V:2] d2^c2d4- | 
[V:3] E4D4- | 
[V:4] A4A4- | 
[V:5] A,,4D,4 | 
[V:1] F2EDE2D2 | 
[V:2] d4z4 | 
[V:3] D4z2D2- | 
[V:4] A2GFG2A2 | 
[V:5] z2D,2C,2F,2- | 
[V:1] F4G4 | 
[V:2] z4z2c2- | 
[V:3] D2F4E2 | 
[V:4] F4c3B | 
[V:5] F,E,D,2C,4 | 
[V:1] A4c4- | 
[V:2] c2d2c2f2- | 
[V:3] F2A4GF | 
[V:4] AGF4ED | 
[V:5] F,,8 | 
[V:1] c4A2c2- | 
[V:2] f2e2f3e | 
[V:3] G4F4- | 
[V:4] C8 | 
[V:5] C,4F,,4- | 
[V:1] c2BAB2G2 | 
[V:2] c2d2B4 | 
[V:3] F4z2E2 | 
[V:4] z4G4 | 
[V:5] F,,4G,,4 | 
[V:1] A2c4BA | 
[V:2] A3Bc2d2 | 
[V:3] F2A4G2- | 
[V:4] C4F4 | 
[V:5] F,,3G,,A,,2B,,2 | 
[V:1] G2A4G2 | 
[V:2] e2f2c4 | 
[V:3] G2F4E2 | 
[V:4] E2A3Bc2 | 
[V:5] C,2F,,2z2C,2 | 
[V:1] F2EDC4 | 
[V:2] z8 | 
[V:3] F2A2G4 | 
[V:4] F4z2c2- | 
[V:5] D,2F,4E,2 | 
[V:1] z8 | 
[V:2] c3de2f2- | 
[V:3] F4z4 | 
[V:4] c2A2B2A2 | 
[V:5] F,2A,2G,2F,2 | 
[V:1] z4A4- | 
[V:2] f2e2f2ed | 
[V:3] C4D4 | 
[V:4] c4A4- | 
[V:5] G,4F,4- | 
[V:1] A4F4 | 
[V:2] c2c2d4 | 
[V:3] F8 | 
[V:4] A4A4 | 
[V:5] F,4D,4 | 
[V:1] G2E3DD2 | 
[V:2] e2c4B2 | 
[V:3] E2G2F4 | 
[V:4] z2c2A2B2 | 
[V:5] C,4D,4 | 
[V:1] E2A3GE2 | 
[V:2] c4z4 | 
[V:3] E2C2D2E2 | 
[V:4] A2A4G2 | 
[V:5] A,,4z4 | 
[V:1] F2EDC4 | 
[V:2] z4e4- | 
[V:3] D4E4 | 
[V:4] A4z2c2- | 
[V:5] z4A,,3B,, | 
[V:1] z8 | 
[V:2] e2dcB2B2 | 
[V:3] z8 | 
[V:4] cBA4^G2 | 
[V:5] C,2D,2E,4 | 
[V:1] z2c4A2 | 
[V:2] c3de2d2 | 
[V:3] E2E4F2 | 
[V:4] A8 | 
[V:5] A,,3B,,C,2D,2 | 
[V:1] B2G4A2- | 
[V:2] B2e3dcB | 
[V:3] G4E4 | 
[V:4] z4z2A2- | 
[V:5] G,,2C,4A,,2 | 
[V:1] A2F2G2E2- | 
[V:2] A2d4cB | 
[V:3] F2D4A2- | 
[V:4] A2_B2_B2AG | 
[V:5] F,,2_B,,2G,,2A,,2- | 
[V:1] ECF3ED2- | 
[V:2] c2d2A2G2 | 
[V:3] AGFED4 | 
[V:4] FED2F2G2 | 
[V:5] A,,2D,3C,_B,,2 | 
[V:1] D2C2D2A2 | 
[V:2] A8 | 
[V:3] E4D4 | 
[V:4] E2C2F3G | 
[V:5] A,,4D,4- | 
[V:1] F3GA2B2 | 
[V:2] d8 | 
[V:3] F8 | 
[V:4] A8- | 
[V:5] D,2D,2D,2D,2 | 
[V:1] c8 | 
[V:2] c8- | 
[V:3] E8- | 
[V:4] A8 | 
[V:5] A,,8- | 
[V:1] c8 ||  
[V:2] c8 ||  
[V:3] E8 ||  
[V:4] A8 ||  
[V:5] A,,8 ||  
[V:1]  [K:C] [K:clef=treble][M:2/1]z8 | 
[V:2]  [K:C] [K:clef=treble-8][M:2/1]z8 | 
[V:3]  [K:C] [K:clef=treble-8][M:2/1]A8 | 
[V:4]  [K:C] [K:clef=treble-8][M:2/1]z8 | 
[V:5]  [K:C] [K:clef=bass][M:2/1]D,4D,2D,2- | 
[V:1] z8 | 
[V:2] z8 | 
[V:3] A4A4- | 
[V:4] z8 | 
[V:5] D,2C,B,,A,,2D,2 | 
[V:1] z8 | 
[V:2] z8 | 
[V:3] A2GFG4 | 
[V:4] z8 | 
[V:5] C,2F,4E,2 | 
[V:1] z8 | 
[V:2] z8 | 
[V:3] F8 | 
[V:4] z8 | 
[V:5] F,4A,4- | 
[V:1] z8 | 
[V:2] z8 | 
[V:3] c6c2 | 
[V:4] z8 | 
[V:5] A,2A,2A,4- | 
[V:1] z8 | 
[V:2] z8 | 
[V:3] c4B4 | 
[V:4] z8 | 
[V:5] A,2G,F,G,2E,2 | 
[V:1] z8 | 
[V:2] z8 | 
[V:3] A2c4BA | 
[V:4] z8 | 
[V:5] F,4E,2D,2- | 
[V:1] z8 | 
[V:2] z8 | 
[V:3] G2A4^G2 | 
[V:4] z8 | 
[V:5] D,C,B,,A,,B,,4 | 
[V:1] z8 | 
[V:2] z8 | 
[V:3] A8- | 
[V:4] z2E2F2ED | 
[V:5] A,,4z2F,2 | 
[V:1] z8 | 
[V:2] z8 | 
[V:3] A8- | 
[V:4] C2D3EFD | 
[V:5] E,2F,3E,D,2 | 
[V:1] z4E4 | 
[V:2] z4c4 | 
[V:3] A8- | 
[V:4] E2F2E4 | 
[V:5] C,2D,2A,,4 | 
[V:1] F4F4 | 
[V:2] d4d4 | 
[V:3] A8 | 
[V:4] D8- | 
[V:5] z8 | 
[V:1] F6ED | 
[V:2] d6cB | 
[V:3] z8 | 
[V:4] D8 | 
[V:5] z8 | 
[V:1] E2F2E2A2- | 
[V:2] c2d2A4 | 
[V:3] z8 | 
[V:4] z8 | 
[V:5] z8 | 
[V:1] A2GFG2A2 | 
[V:2] z2e4dc | 
[V:3] z8 | 
[V:4] z8 | 
[V:5] z8 | 
[V:1] B2c2A2B2- | 
[V:2] d2e2f2d2 | 
[V:3] z8 | 
[V:4] z8 | 
[V:5] z8 | 
[V:1] BAA4^G2 | 
[V:2] e2c2B4 | 
[V:3] z8 | 
[V:4] z4z2E2 | 
[V:5] z8 | 
[V:1] A8 | 
[V:2] A8 | 
[V:3] A8 | 
[V:4] F3ED2F2- | 
[V:5] A,,4D,4- | 
[V:1] z8 | 
[V:2] z8 | 
[V:3] A4A4 | 
[V:4] F2E2D2F2- | 
[V:5] D,2C,2F,3E, | 
[V:1] z8 | 
[V:2] z4z2e2 | 
[V:3] A4c4 | 
[V:4] F2EDE4 | 
[V:5] D,2C,B,,A,,4 | 
[V:1] z8 | 
[V:2] f3ed2f2- | 
[V:3] d2A2B4 | 
[V:4] D8 | 
[V:5] z4z2D,2- | 
[V:1] z8 | 
[V:2] f2e2d2f2- | 
[V:3] A4A4- | 
[V:4] z8 | 
[V:5] D,2C,2D,4 | 
[V:1] z4z2B2 | 
[V:2] fecde4 | 
[V:3] A4G4 | 
[V:4] z8 | 
[V:5] F,4E,4 | 
[V:1] c3BA2c2- | 
[V:2] z2e2f2c2- | 
[V:3] A8 | 
[V:4] E4A4 | 
[V:5] A,,4z2A,2- | 
[V:1] c2B2A2c2- | 
[V:2] cde2f4 | 
[V:3] z8 | 
[V:4] F2G2A2GF | 
[V:5] A,2G,2F,2E,D, | 
[V:1] c2BAB2E2 | 
[V:2] e4z2c2 | 
[V:3] z8 | 
[V:4] G8 | 
[V:5] C,D,E,F,E,4 | 
[V:1] F2G2A2B2 | 
[V:2] A2B2c2d2 | 
[V:3] z8 | 
[V:4] z8 | 
[V:5] z8 | 
[V:1] G4z4 | 
[V:2] e4z4 | 
[V:3] z8 | 
[V:4] z2E2F2G2 | 
[V:5] z2C,2D,2E,2 | 
[V:1] z4z2E2 | 
[V:2] z4z2c2 | 
[V:3] z8 | 
[V:4] A2B2G4 | 
[V:5] F,2G,2C,4 | 
[V:1] F2G2A2B2 | 
[V:2] d2e2f2d2 | 
[V:3] z8 | 
[V:4] z8 | 
[V:5] z8 | 
[V:1] G4c4- | 
[V:2] e4e4- | 
[V:3] c8- | 
[V:4] G8- | 
[V:5] C,6C,2 | 
[V:1] c2c2c4- | 
[V:2] e2e2e4- | 
[V:3] c4c4 | 
[V:4] G4G4 | 
[V:5] C,8 | 
[V:1] c4c4 | 
[V:2] e4e4 | 
[V:3] c8 | 
[V:4] G8 | 
[V:5] C,4C,4 | 
[V:1] c4c4 | 
[V:2] e4f3e | 
[V:3] c4A4 | 
[V:4] A4A4 | 
[V:5] A,,4F,,4 | 
[V:1] B2G3^FF2 | 
[V:2] d2cBA4 | 
[V:3] d8 | 
[V:4] D4D4 | 
[V:5] G,,4D,4 | 
[V:1] G2B4A2- | 
[V:2] B2G2B2d2- | 
[V:3] d4d4 | 
[V:4] G4F4- | 
[V:5] G,,4D,4- | 
[V:1] A2d4cB | 
[V:2] d2cBA2d2 | 
[V:3] A8 | 
[V:4] F4F4 | 
[V:5] D,4D,4 | 
[V:1] c4c2B2- | 
[V:2] c3de4- | 
[V:3] A3Bc2G2 | 
[V:4] E8- | 
[V:5] A,,4z4 | 
[V:1] B2A3^GG2 | 
[V:2] e4e4 | 
[V:3] c4B4 | 
[V:4] E8 | 
[V:5] z8 | 
[V:1] A8- | 
[V:2] c8- | 
[V:3] A4z4 | 
[V:4] z2A2A3G | 
[V:5] A,,8 | 
[V:1] A8- | 
[V:2] c8 | 
[V:3] z2A2A3G | 
[V:4] F2EDC4 | 
[V:5] A,,4A,,4 | 
[V:1] A8 | 
[V:2] z4z2e2 | 
[V:3] F2EDC4 | 
[V:4] z2F4E2 | 
[V:5] z2A,2A,3G, | 
[V:1] z8 | 
[V:2] f2d2e2f2- | 
[V:3] D2F2E2D2 | 
[V:4] D4A4- | 
[V:5] F,3E,/D,/C,2D,2 | 
[V:1] z8 | 
[V:2] fed4^c2 | 
[V:3] F4E4 | 
[V:4] A4A4 | 
[V:5] A,,8 | 
[V:1] z8 | 
[V:2] d4d4 | 
[V:3] D8 | 
[V:4] F3GA4 | 
[V:5] D,8- | 
[V:1] z8 | 
[V:2] f6e2 | 
[V:3] z8 | 
[V:4] z4D3E | 
[V:5] D,8 | 
[V:1] z8 | 
[V:2] d2c2B4 | 
[V:3] z8 | 
[V:4] FGA4^G2 | 
[V:5] z8 | 
[V:1] z8 | 
[V:2] A8 | 
[V:3] z8 | 
[V:4] A4A4 | 
[V:5] z4F,4 | 
[V:1] z8 | 
[V:2] z8 | 
[V:3] z8 | 
[V:4] c6B2 | 
[V:5] A,6G,2 | 
[V:1] z8 | 
[V:2] z8 | 
[V:3] z4A4 | 
[V:4] A2G2F4 | 
[V:5] F,2E,2D,4 | 
[V:1] z8 | 
[V:2] z8 | 
[V:3] c8 | 
[V:4] E8- | 
[V:5] C,4z2A,,2 | 
[V:1] z8 | 
[V:2] z4z2G2 | 
[V:3] A4G4 | 
[V:4] E8 | 
[V:5] C,6B,,2 | 
[V:1] z4A4 | 
[V:2] A2B2c2d2 | 
[V:3] c6B2 | 
[V:4] z4c4 | 
[V:5] A,,2G,,2F,,4 | 
[V:1] c6B2 | 
[V:2] e2f2ede2 | 
[V:3] A2GFG4 | 
[V:4] c4c4 | 
[V:5] C,8 | 
[V:1] A2G2F4 | 
[V:2] f4c4- | 
[V:3] F8 | 
[V:4] c4c4 | 
[V:5] F,,8 | 
[V:1] E3FGAG2- | 
[V:2] c4c4 | 
[V:3] G6G2 | 
[V:4] C8- | 
[V:5] z8 | 
[V:1] G2F4E2 | 
[V:2] c8 | 
[V:3] E2F2G4 | 
[V:4] C8 | 
[V:5] z8 | 
[V:1] F4E4- | 
[V:2] z4c4- | 
[V:3] F4G4- | 
[V:4] z4E4- | 
[V:5] z4C,4- | 
[V:1] E2E2E3F | 
[V:2] c2c2c3d | 
[V:3] G4G4 | 
[V:4] E2E2E4 | 
[V:5] C,2C,2C,4- | 
[V:1] G2G2E2G2- | 
[V:2] e2e2c2e2- | 
[V:3] G4G4- | 
[V:4] E2G3FED | 
[V:5] C,4C,4 | 
[V:1] GFE4D2 | 
[V:2] edc4B2 | 
[V:3] G4G4 | 
[V:4] C4D4 | 
[V:5] C,4G,,4 | 
[V:1] E4z4 | 
[V:2] c8 | 
[V:3] E3FG2A2- | 
[V:4] C2G3FED | 
[V:5] C,3D,E,2F,2 | 
[V:1] z8 | 
[V:2] z8 | 
[V:3] A2G4F2 | 
[V:4] C2c4B2 | 
[V:5] E,2C,2D,4 | 
[V:1] z2G2G2E2 | 
[V:2] z2e2e2c2 | 
[V:3] G8 | 
[V:4] c8 | 
[V:5] C,8 | 
[V:1] F3GE4 | 
[V:2] d4c4 | 
[V:3] z8 | 
[V:4] z8 | 
[V:5] z8 | 
[V:1] z8 | 
[V:2] z8 | 
[V:3] z2A2G2E2 | 
[V:4] c3AB2c2 | 
[V:5] z2F,2E,2C,2 | 
[V:1] z2A2G2E2 | 
[V:2] z8 | 
[V:3] F2D2E2G2 | 
[V:4] A2F2G2c2 | 
[V:5] D,2F,2E,2C,2 | 
[V:1] F3EC2A2 | 
[V:2] z2f2e2c2- | 
[V:3] F2D2E4 | 
[V:4] A2B2c4 | 
[V:5] D,3C,A,,4 | 
[V:1] G2E2F4 | 
[V:2] cBG2A2B2 | 
[V:3] z8 | 
[V:4] z4z2F2 | 
[V:5] z4z2D,2 | 
[V:1] E4z4 | 
[V:2] c4z4 | 
[V:3] z8 | 
[V:4] G2A4G2 | 
[V:5] C,2A,,2B,,4 | 
[V:1] z2c2B2G2 | 
[V:2] z4z2e2 | 
[V:3] z2A2G2E2 | 
[V:4] A4E4 | 
[V:5] A,,4z4 | 
[V:1] A3GE2G2 | 
[V:2] c2d3cc2- | 
[V:3] F3EC2E2 | 
[V:4] z8 | 
[V:5] z8 | 
[V:1] F4E4 | 
[V:2] c2B2c4 | 
[V:3] D4C4 | 
[V:4] z8 | 
[V:5] z8 | 
[V:1] z4A4- | 
[V:2] c6c2 | 
[V:3] z2E4E2 | 
[V:4] A6A2 | 
[V:5] A,,8 | 
[V:1] A2A2A4- | 
[V:2] c4c4 | 
[V:3] E8 | 
[V:4] A4A4- | 
[V:5] A,,4A,,4- | 
[V:1] A4A4 | 
[V:2] c2e3dcB | 
[V:3] E4C4 | 
[V:4] A2GFE4 | 
[V:5] A,,4A,,4 | 
[V:1] c8 | 
[V:2] A8- | 
[V:3] C2F4ED | 
[V:4] F4C4 | 
[V:5] F,,8 | 
[V:1] c8 | 
[V:2] A8 | 
[V:3] C4F4 | 
[V:4] F4C4 | 
[V:5] F,,8 | 
[V:1] B4B2G2- | 
[V:2] z2d2d2d2- | 
[V:3] D8- | 
[V:4] G8- | 
[V:5] G,,8- | 
[V:1] G2FED2G2- | 
[V:2] dcBAB4 | 
[V:3] D8 | 
[V:4] G8- | 
[V:5] G,,8 | 
[V:1] G2E4c2 | 
[V:2] c8 | 
[V:3] E4G4- | 
[V:4] G8 | 
[V:5] C,8 | 
[V:1] B2A4GF | 
[V:2] z4A4 | 
[V:3] G2FEF4 | 
[V:4] z8 | 
[V:5] D,8 | 
[V:1] E2G3FED | 
[V:2] c4d3e | 
[V:3] G4G4 | 
[V:4] z8 | 
[V:5] C,4B,,4 | 
[V:1] C4z2C2 | 
[V:2] f2e3dcB | 
[V:3] A8 | 
[V:4] z8 | 
[V:5] A,,8- | 
[V:1] CDED/E/F2E2- | 
[V:2] A8- | 
[V:3] E4A3G | 
[V:4] z8 | 
[V:5] A,,8 | 
[V:1] E3D6^C3 | 
[V:2] A12 | 
[V:3] F3D3E6 | 
[V:4] [M:3/1]z4z4C4 | 
[V:5] [M:3/1]z4z4A,,4 | 
[V:1] [M:3/1]D12 | 
[V:2] [M:3/1]z12 | 
[V:3] [M:3/1]D12 | 
[V:4] F6G2A4 | 
[V:5] D,6E,2F,4 | 
[V:1] z4z4D4 | 
[V:2] z4z4A4 | 
[V:3] z4z4D4 | 
[V:4] _B4A4F4 | 
[V:5] G,4F,4D,4 | 
[V:1] E6F2G4 | 
[V:2] c8c4 | 
[V:3] G8G4 | 
[V:4] E12 | 
[V:5] C,12 | 
[V:1] A4G4E4 | 
[V:2] c4c8 | 
[V:3] F4E8 | 
[V:4] z4z4C4 | 
[V:5] z4z4A,,4 | 
[V:1] F12 | 
[V:2] d12 | 
[V:3] D12 | 
[V:4] F6G2A4 | 
[V:5] D,6E,2F,4 | 
[V:1] z4z4D4 | 
[V:2] z4z4A4 | 
[V:3] z4z4D4 | 
[V:4] _B4A4F4 | 
[V:5] G,4F,4D,4 | 
[V:1] E6F2G4 | 
[V:2] c8c4 | 
[V:3] G8E4 | 
[V:4] E12 | 
[V:5] C,12 | 
[V:1] A4G4E4 | 
[V:2] c4c8 | 
[V:3] F4E8 | 
[V:4] z4z4C4 | 
[V:5] z4z4A,,4 | 
[V:1] F6G2A4 | 
[V:2] d12- | 
[V:3] D6E2F4 | 
[V:4] F6F2F4 | 
[V:5] D,6D,2D,4 | 
[V:1] B4A4B4 | 
[V:2] d8d4 | 
[V:3] G4F4G4 | 
[V:4] D4D8 | 
[V:5] G,,4D,4G,,4 | 
[V:1] G4c6B2 | 
[V:2] e8c4- | 
[V:3] E12 | 
[V:4] C6D2E4 | 
[V:5] C,8A,,4 | 
[V:1] A6G2G4 | 
[V:2] c4c8 | 
[V:3] z4z4E4 | 
[V:4] F4G8 | 
[V:5] F,,4C,8 | 
[V:1] A12 | 
[V:2] c4d4c4 | 
[V:3] F4D4E4 | 
[V:4] F6G2A4 | 
[V:5] F,,8C,4 | 
[V:1] z4z4E4 | 
[V:2] A12- | 
[V:3] F6E2C4 | 
[V:4] F4c8 | 
[V:5] D,4F,4E,4 | 
[V:1] F4D4E4 | 
[V:2] A8z4 | 
[V:3] D2E2F2G2E4 | 
[V:4] F2G2A2_B2G4 | 
[V:5] D,6C,2C,4 | 
[V:1] F6E2C4 | 
[V:2] z12 | 
[V:3] D4F4E4 | 
[V:4] F4A8 | 
[V:5] D,4A,,8 | 
[V:1] D2E2F2D2E4 | 
[V:2] z12 | 
[V:3] D8C4 | 
[V:4] A8z4 | 
[V:5] z12 | 
[V:1] D6C2C4 | 
[V:2] z4z4e4 | 
[V:3] D4E8 | 
[V:4] A6F2G4 | 
[V:5] z12 | 
[V:1] D4F4G4 | 
[V:2] f4d4e4 | 
[V:3] D8z4 | 
[V:4] F4_B8 | 
[V:5] _B,,6A,,2G,,4 | 
[V:1] A6B2c2A2 | 
[V:2] f6e2c4 | 
[V:3] z12 | 
[V:4] A6G2E4 | 
[V:5] F,,6G,,2A,,4 | 
[V:1] B4A6G2 | 
[V:2] d2e2f2d2e4 | 
[V:3] D8C4 | 
[V:4] G4A4E4 | 
[V:5] G,,4F,,4C,4 | 
[V:1] G4A8 | 
[V:2] d6^c2^c4 | 
[V:3] D4E8 | 
[V:4] z4A8 | 
[V:5] B,,4A,,8 | 
[V:1] F4D4F4 | 
[V:2] d4A4d4 | 
[V:3] D4F4D4 | 
[V:4] A8A4- | 
[V:5] D,8D,4 | 
[V:1] !fermata!E12 | 
[V:2] !fermata!^c12 | 
[V:3] !fermata!E12 | 
[V:4] A4A8 | 
[V:5] !fermata!A,,12 | 
[V:1] F12- | 
[V:2] d12 | 
[V:3] D12- | 
[V:4] A12- | 
[V:5] D,,12- & D,12- | 
[V:1] F12 |]  
[V:2] d12 |]  
[V:3] D12 |]  
[V:4] A12 |]  
[V:5] D,,12 & D,12 |]  



